frontend/public/Images/Business/p5_text3.svg

<svg width="43" height="23" viewBox="0 0 43 23" fill="none" xmlns="http://www.w3.org/2000/svg">
<path d="M8.57695 4.4H13.677V2.725H1.45195V4.4H6.52695V7C6.52695 10.975 3.85195 15.225 0.651953 16.8L1.85195 18.425C4.40195 17.075 6.57695 14.2 7.55195 10.9C8.57695 14 10.727 16.675 13.227 17.95L14.452 16.35C11.202 14.8 8.57695 10.725 8.57695 7V4.4ZM17.252 0.425V8.575H12.402V10.25H17.252V22.875H19.302V0.425H17.252ZM36.35 10.425C33.35 11.025 30.725 11.2 27.175 11.225V1.775H25.125V12.95H26.8C30.625 12.95 33.425 12.775 36.625 12.125L36.35 10.425ZM27.275 16.75H40.225V22.875H42.3V15.075H27.275V16.75ZM40.225 0.425V3.15H33.925V4.75H40.225V7.25H33.925V8.825H40.225V14H42.3V0.425H40.225Z" fill="white"/>
</svg>

<svg width="43" height="23" fill="none" xmlns="http://www.w3.org/2000/svg"><path d="M8.577 4.4h5.1V2.725H1.452V4.4h5.075V7c0 3.975-2.675 8.225-5.875 9.8l1.2 1.625c2.55-1.35 4.725-4.225 5.7-7.525 1.025 3.1 3.175 5.775 5.675 7.05l1.225-1.6C11.202 14.8 8.577 10.725 8.577 7V4.4zM17.252.425v8.15h-4.85v1.675h4.85v12.625h2.05V.425h-2.05zm19.098 10c-3 .6-5.625.775-9.175.8v-9.45h-2.05V12.95H26.8c3.825 0 6.625-.175 9.825-.825l-.275-1.7zm-9.075 6.325h12.95v6.125H42.3v-7.8H27.275v1.675zM40.225.425V3.15h-6.3v1.6h6.3v2.5h-6.3v1.575h6.3V14H42.3V.425h-2.075z" fill="#fff"/></svg>
